public/svg/monitor.svg

<svg xmlns="http://www.w3.org/2000/svg" width="35" height="35" viewBox="0 0 35 35" fill="none">
<path opacity="0.3" fill-rule="evenodd" clip-rule="evenodd" d="M7.29199 10.2084V21.875H27.7087V10.2084H7.29199Z" fill="#1B5BF7"/>
<path opacity="0.3" fill-rule="evenodd" clip-rule="evenodd" d="M17.0419 21.875C16.4896 21.875 16.0419 22.3227 16.0419 22.875V27.7083H13.8542C13.4515 27.7083 13.125 28.0348 13.125 28.4375C13.125 28.8402 13.4515 29.1666 13.8542 29.1666H17.036C17.0379 29.1667 17.0399 29.1667 17.0419 29.1667H17.9586C17.9605 29.1667 17.9625 29.1667 17.9645 29.1666H21.1458C21.5485 29.1666 21.875 28.8402 21.875 28.4375C21.875 28.0348 21.5485 27.7083 21.1458 27.7083H18.9586V22.875C18.9586 22.3227 18.5108 21.875 17.9586 21.875H17.0419Z" fill="#1B5BF7"/>
<path fill-rule="evenodd" clip-rule="evenodd" d="M27.3437 7.29169H7.65625C5.84407 7.29169 4.375 8.59752 4.375 10.2084V21.875C4.375 23.4859 5.84407 24.7917 7.65625 24.7917H27.3437C29.1559 24.7917 30.625 23.4859 30.625 21.875V10.2084C30.625 8.59752 29.1559 7.29169 27.3437 7.29169ZM7.2919 21.8751V10.2084H27.7086V21.8751H7.2919Z" fill="#1B5BF7"/>
</svg>

<svg xmlns="http://www.w3.org/2000/svg" width="35" height="35" fill="#1b5bf7" fill-rule="evenodd" xmlns:v="https://vecta.io/nano"><path opacity=".3" d="M7.292 10.208v11.667h20.417V10.208H7.292z"/><path opacity=".3" d="M17.042 21.875a1 1 0 0 0-1 1v4.833h-2.188a.73.73 0 0 0-.729.729.73.73 0 0 0 .729.729h3.182.923 3.187a.73.73 0 0 0 .729-.729.73.73 0 0 0-.729-.729h-2.187v-4.833a1 1 0 0 0-1-1h-.917z"/><path d="M27.344 7.292H7.656c-1.812 0-3.281 1.306-3.281 2.917v11.667c0 1.611 1.469 2.917 3.281 2.917h19.687c1.812 0 3.281-1.306 3.281-2.917V10.208c0-1.611-1.469-2.917-3.281-2.917zM7.292 21.875V10.208h20.417v11.667H7.292z"/></svg>
